icons/icon-people.svg

<svg viewBox="0 0 40 40" fill="none" xmlns="http://www.w3.org/2000/svg">
<g id="icon">
<path id="Vector 176" d="M14.4451 19.418V19.418C20.5816 19.418 25.5562 24.3927 25.5562 30.5292V32.2223H3.33398V30.5292C3.33398 24.3927 8.3086 19.418 14.4451 19.418V19.418ZM14.4451 19.418L17.3809 16.6382C19.1251 14.9866 19.1251 12.2093 17.3809 10.5577V10.5577C15.7432 9.00695 13.1714 9.03215 11.5643 10.6147V10.6147C9.89882 12.2548 9.89882 14.941 11.5643 16.5812L14.4451 19.418Z" stroke="currentColor" stroke-opacity="0.3" stroke-width="2.5"/>
<path id="Vector 177" d="M28.061 32.2221H35.556V31.0317C35.556 26.2247 31.6592 22.328 26.8523 22.328V22.328M26.8523 22.328L29.1193 20.2105C30.4974 18.9232 30.4974 16.738 29.1193 15.4508V15.4508C27.8498 14.265 25.8732 14.2844 24.6272 15.4948V15.4948C23.3106 16.7737 23.3106 18.8875 24.6272 20.1665L26.8523 22.328ZM26.8523 22.328H25.1598" stroke="currentColor" stroke-opacity="0.3" stroke-width="2.5"/>
</g>
</svg>

<svg xmlns="http://www.w3.org/2000/svg" fill="none" viewBox="0 0 40 40"><g stroke="currentColor" stroke-opacity=".3" stroke-width="2.5"><path d="M14.445 19.418c6.137 0 11.111 4.975 11.111 11.111v1.693H3.334V30.53c0-6.136 4.975-11.111 11.111-11.111Zm0 0 2.936-2.78a4.187 4.187 0 1 0-5.817-6.024 4.187 4.187 0 0 0 0 5.967l2.881 2.837ZM28.061 32.222h7.495v-1.19a8.704 8.704 0 0 0-8.704-8.704m0 0 2.267-2.117a3.257 3.257 0 1 0-4.492-4.716 3.256 3.256 0 0 0 0 4.671l2.225 2.162Zm0 0H25.16"/></g></svg>
